X:1
T:Some Day
T:Some Day
T:Charles Albert Tindley
T:Charles Albert Tindley, 1906
T:Public Domain Courtesy of the Cyber Hymnal™
T:Public Domain Courtesy of the Cyber Hymnal™
C:Charles Albert Tindley
Z:Public Domain
Z:Courtesy of the Cyber Hymnal™
%%score ( 1 2 ) 3
L:1/8
Q:1/4=105
M:3/4
K:F
V:1 treble 
V:2 treble 
V:3 bass 
V:1
 [CF]>[FA] | [Fc]3 [Fd] [Fc][FA] | [CF]4 [CF][CG] | [FA]3 [FA] [FG]F | [Fc]4 [Fc][Fc] | %5
w: 1.~Beams of|Hea- ven, as I|go, Through this|wil- der- ness be-|low, Guide my|
w: 2.~Of- ten-|times my sky is|clear, Joy a-|bounds with- out a|tear, Though a|
w: 3.~Hard- er|yet may be the|fight, Right may|of- ten yield to|might, Wick- ed-|
w: 4.~Bur- dens|may now crush me|down, Dis- ap-|point- ments all a-|round, Trou- bles|
 [Fc]3 [Fd] [Fc][FA] | [CF]4 [CF][CG] | [FA]3 [FA] [EG][FA] | F3 [Fc] [Fd][Ge] | %9
w: feet in peace- ful|ways, Turn my|mid- nights in- to|days; When in the|
w: day so bright be-|gun, Clouds may|hide to- mor- row’s|sun; There’ll be a|
w: ness a- while may|reign, Sat- an’s|cause may seem to|gain, There is a|
w: speak in mourn- ful|sigh, Sor- row|through a tear stained|eye; There is a|
 [Ff]3 [Fc] [Fd][Fc] | [Fc]3 [Fc] [Fd][Ge] | [Ff]3 [Fd] [Fc][FA] | [EG]3 [CF] [FA][Fc] | %13
w: dark- ness I would|grope, Faith al- ways|sees a star of|hope, And soon from|
w: day that’s al- ways|bright, A day that|ne- ver yields to|night, And in its|
w: God that rules a-|bove, With hand of|power and heart of|love, If I am|
w: world where plea- sure|reigns, No mourn- ing|soul shall roam its|plains, And to that|
 [Fc]3 [Fd] [Fc][FA] | [EG] [CF]2 [CF] [CG][FA] | [EG]4- [EG][EG] | F3 ||"^Refrain" [Fc][Fd] [Ge] | %18
w: all life’s grief and|dan- ger, I shall be|free * some|day.||
w: light the streets of|glor- y I shall be-|hold * some|day.||
w: right, He’ll fight my|bat- tle, I shall have|peace * some|day.||
w: land of peace and|glor- y I want to|go * some|day.||
 [Ff]3 [Gc] [Fd][Fc] | [Fc]3 [Fc] [Fd][Ge] | [Ff]3 [Fd] [Fc][FA] | [EG]3 [CF] [FA][Fc] | %22
w: ||||
w: ||||
w: ||||
w: ||||
 [Fc]3 [Fd] [Fc][FA] | [EG] [CF]2 [CF] [CG][FA] | [EG]4- [EG][EG] | [CF]4 |] %26
w: ||||
w: ||||
w: ||||
w: ||||
V:2
 x2 | x6 | x6 | x6 | x6 | x6 | x6 | x6 | F3 x3 | x6 | x6 | x6 | x6 | x6 | x6 | x6 | F3 || x3 | x6 | %19
 x6 | x6 | x6 | x6 | x6 | x6 | x4 |] %26
V:3
 [F,A,]>[F,C] | [F,A,]3 [F,B,] [F,A,][F,C] | [F,A,]4 [F,A,][F,B,] | [F,C]3 [F,C] [F,B,][F,A,] | %4
w: ~ ~|~ ~ ~ ~|~ ~ ~|~ ~ ~ ~|
 [F,A,]4 [F,A,][F,A,] | [F,A,]3 [F,B,] [F,A,][F,C] | [F,A,]4 [F,A,][F,B,] | %7
w: ~ ~ ~|~ ~ ~ ~|~ ~ ~|
 [F,C]3 [F,C] [C,B,][C,C] | [F,A,]3 [F,A,] [F,B,][F,B,] | [F,A,]3 [F,A,] [F,B,][F,A,] | %10
w: ~ ~ ~ ~|~ ~ ~ ~|~ ~ ~ ~|
 [F,A,]3 [F,A,] [F,B,][F,B,] | [F,A,]3 [F,B,] [F,A,][F,C] | [C,B,]3 [F,A,] [F,C][F,A,] | %13
w: ~ ~ ~ ~|~ ~ ~ ~|~ ~ ~ ~|
 [F,A,]3 [F,B,] [F,A,][F,C] | [C,B,] [F,A,]2 [F,A,] [F,B,][F,C] | [C,C]4- [C,C][C,B,] | [F,A,]3 || %17
w: ~ ~ ~ ~|~ ~ ~ ~ ~|~ * ~|~|
 [F,A,][F,B,] [F,B,] | [F,A,]3 [F,A,] [F,B,][F,A,] | [F,A,]3 [F,A,] [F,B,][F,B,] | %20
w: I do not|know how long ’twill|be, Nor what the|
 [F,A,]3 [F,B,] [F,A,][F,C] | [C,B,]3 [F,A,] [F,C][F,A,] | [F,A,]3 [F,B,] [F,A,][F,C] | %23
w: fu- ture holds for|me, But this I|know, if Je- sus|
 [C,B,] [F,A,]2 [F,A,] [F,B,][F,C] | [C,C]4- [C,C][C,B,] | [F,A,]4 |] %26
w: leads me, I shall get|home * some|day.|

